X: 30984
T: P&O, The
R: polka
M: 2/4
K: Eminor
|:BE EF|G2 FE|FD DE|F/E/D F/E/D|
BE EF|G2 F/G/A|G/A/B Ad|e2 e2:|
|:ge fd|ed BA|Fd de|f2 ef|
g/f/e f/e/d|ed BA|GB Ad|e2 e2:|

